!!!!SEGMENT: pl-kk--kk-i-20--002_anonim--missa-de-nativitate-domini-et-in-terra.krn
!!!cenid: 17xx:2208
!!!COM: Anonim
!!!COM-rismid: pe30004985
!!!CDT:
!!!CNT:
!!!OPR: Missa De Nativitate Domini
!!!OTL: Et in terra
!!!OMV: 002
!!!PDT:
!!!AGN: Sacred; Mass
!!!SMS-siglum: PL-Kk
!!!SMS-shelfmark: Kk.I.20
!!!SMS-shelfwork: 001-002 M
!!!SMS-variant:
!!!SMS-altvar:
!!!NIFC-rismid: 1001156656
!!!URL-scan: http://repozytorium.nifc.pl/skany/pl-kk-nut--i-20
!!!ONB-nifc: UWAGA: części Mszy: 1. Kyrie, 2. Et in terra, 3. Sanctus, 4. Agnus Dei.
**kern	**text	**kern	**text	**kern	**text
*part3	*part3	*part2	*part2	*part1	*part1
*staff3	*staff3	*staff2	*staff2	*staff1	*staff1
*Iempty	*	*Itenor	*	*Ialto	*
*I"Baſso.	*	*I"Tenore	*	*I"Alto.	*
*I'B	*	*I'T	*	*I'A	*
*clefF4	*	*clefC4	*	*clefC3	*
*k[b-]	*	*k[b-]	*	*k[b-]	*
*B-:	*	*B-:	*	*B-:	*
*M3/2	*	*M3/2	*	*M3/2	*
=1-	=1-	=1-	=1-	=1-	=1-
*2\right	*	*2\right	*	*2\right	*
2.G\	Et	2.B-\	Et	2.d\	Et
4G\	in	4B-\	in	4d\	in
4G\	ter-	4B-\	ter-	4d\	ter-
!LO:TX:t=P:problem:kreska pseudotaktowa	!	!LO:TX:t=P:problem:kreska pseudotaktowa	!	!LO:TX:t=P:problem:kreska pseudotaktowa	!
4G\	-ra	4B-\	-ra	4d\	-ra
=2-	=2-	=2-	=2-	=2-	=2-
!LO:TX:t=P:problem:kreska pseudotaktowa	!	!LO:TX:t=P:problem:kreska pseudotaktowa	!	!LO:TX:t=P:problem:kreska pseudotaktowa	!
1.F	pax	1.c	pax	1.f	pax
=3-	=3-	=3-	=3-	=3-	=3-
2BB-/	ho-	2d\	ho-	2f\	ho-
2F\	-mi-	2c\	-mi-	2f\	-mi-
!LO:TX:t=P:problem:kreska pseudotaktowa	!	!LO:TX:t=P:problem:kreska pseudotaktowa	!	!LO:TX:t=P:problem:kreska pseudotaktowa	!
2G\	-ni-	2B-\	-ni-	2d\	-ni-
=4-	=4-	=4-	=4-	=4-	=4-
1D	-bus	1A	-bus,	1d	-bus
!LO:TX:t=P:problem:kreska pseudotaktowa	!	!LO:TX:t=P:problem:kreska pseudotaktowa	!	!LO:TX:t=P:problem:kreska pseudotaktowa	!
2D\	bo-	2A\	bo-	2d\	bo-
=5-	=5-	=5-	=5-	=5-	=5-
1BB-	-nae	1f	-nae	1f	-nae
!LO:TX:t=P:problem:kreska pseudotaktowa	!	!LO:TX:t=P:problem:kreska pseudotaktowa	!	!LO:TX:t=P:problem:kreska pseudotaktowa	!
2E-X\	vo-	2e-X\	vo-	2g\	vo-
!	!	!LO:LB:g=original	!	!	!
=6-	=6-	=6-	=6-	=6-	=6-
2BB-/	-lun-	2d\	-lun-	2f\	-lun-
!LO:TX:t=P:problem:kreska pseudotaktowa	!	!LO:TX:t=P:problem:kreska pseudotaktowa	!	!LO:TX:t=P:problem:kreska pseudotaktowa	!
1F	-ta-	1c	-ta-	1f	-ta-
=7-	=7-	=7-	=7-	=7-	=7-
2BB-,</	-tis,	2B-,<\	-tis,	2f\	-tis
2BB-/	bo-	2d\	bo-	2f\	bo-
!	!	!	!	!LO:SIC:v:t=custos g	!
!LO:TX:t=P:problem:kreska pseudotaktowa	!	!LO:TX:t=P:problem:kreska pseudotaktowa	!	!LO:TX:t=P:problem:kreska pseudotaktowa	!
2GG/	-nae	2B-\	-nae	2d\	-nae
!	!	!	!	!LO:PB:g=original	!
=8-	=8-	=8-	=8-	=8-	=8-
2C/	vo-	2G/	vo-	2g\	vo-
2GG/	-lun-	2G/	-lun-	2g\	-lun-
!LO:TX:t=P:problem:kreska pseudotaktowa	!	!LO:TX:t=P:problem:kreska pseudotaktowa	!	!LO:TX:t=P:problem:kreska pseudotaktowa	!
2D/	-ta-	2A/	-ta-	2f#X\	-ta-
=9-	=9-	=9-	=9-	=9-	=9-
!LO:TX:t=P:problem:kreska pseudotaktowa	!	!LO:TX:t=P:problem:kreska pseudotaktowa	!	!LO:TX:t=P:problem:kreska pseudotaktowa	!
1.GG	-tis	1.B-	-tis.	1.g	-tis.
!LO:PB:g=original	!	!	!	!	!
=10-	=10-	=10-	=10-	=10-	=10-
1G	Lau-	(>2.d\	Lau-	1g	Lau-
.	.	4c\)	-da-	.	.
!LO:TX:t=P:problem:kreska pseudotaktowa	!	!LO:TX:t=P:problem:kreska pseudotaktowa	!	!LO:TX:t=P:problem:kreska pseudotaktowa	!
2G\	-da-	2B-\	.	2g\	-da-
=11-	=11-	=11-	=11-	=11-	=11-
1D	-mus	1A	-mus	1f#X	-mus
!LO:TX:t=P:problem:kreska pseudotaktowa	!	!LO:TX:t=P:problem:kreska pseudotaktowa	!	!LO:TX:t=P:problem:kreska pseudotaktowa	!
2D\	Te	2A\	te	2f#\	te
=12-	=12-	=12-	=12-	=12-	=12-
1BB-	be-	1f	be-	1fny	be-
!LO:TX:t=P:problem:kreska pseudotaktowa	!	!LO:TX:t=P:problem:kreska pseudotaktowa	!	!LO:TX:t=P:problem:kreska pseudotaktowa	!
2BB-/	-ne-	2f\	-ne-	2f\	-ne-
=13-	=13-	=13-	=13-	=13-	=13-
2C/	-di-	1e-X	-di-	1g	-di-
2C/	-ci-	.	.	.	.
!LO:TX:t=P:problem:kreska pseudotaktowa	!	!LO:TX:t=P:problem:kreska pseudotaktowa	!	!LO:TX:t=P:problem:kreska pseudotaktowa	!
2D/	.	2d\	.	2f\	.
=14-	=14-	=14-	=14-	=14-	=14-
2E\ny	-mus	2d\	-ci-	2g\	-ci-
!LO:TX:t=P:problem:kreska pseudotaktowa	!	!LO:TX:t=P:problem:kreska pseudotaktowa	!	!LO:TX:t=P:problem:kreska pseudotaktowa	!
1F	.	1c	-mus	1f	-mus
=15-	=15-	=15-	=15-	=15-	=15-
!LO:TX:t=P:problem:kreska pseudotaktowa	!	!LO:TX:t=P:problem:kreska pseudotaktowa	!	!LO:TX:t=P:problem:kreska pseudotaktowa	!
1.BB-	te	1.d	te	1.f	te
!	!	!LO:PB:g=original	!	!	!
=16-	=16-	=16-	=16-	=16-	=16-
1D	a-	1F#X	a-	1d	a-
!LO:TX:t=P:problem:kreska pseudotaktowa	!	!LO:TX:t=P:problem:kreska pseudotaktowa	!	!LO:TX:t=P:problem:kreska pseudotaktowa	!
2D\	-do-	2F#/	-do-	2d\	-do-
=17-	=17-	=17-	=17-	=17-	=17-
2GG/	-ra-	2.G/	-ra-	2d\	-ra-
2GG/	-mus	.	.	2d\	-mus
.	.	4G/	-mus	.	.
!LO:TX:t=P:problem:kreska pseudotaktowa	!	!LO:TX:t=P:problem:kreska pseudotaktowa	!	!LO:TX:t=P:problem:kreska pseudotaktowa	!
2D\	te	2F#X/	te	2d\	te
!	!	!	!	!LO:LB:g=original	!
=18-	=18-	=18-	=18-	=18-	=18-
1F	a-	1A	a-	1f	a-
!LO:TX:t=P:problem:kreska pseudotaktowa	!	!LO:TX:t=P:problem:kreska pseudotaktowa	!	!LO:TX:t=P:problem:kreska pseudotaktowa	!
2F\	-do-	2A\	-do-	2f\	-do-
=19-	=19-	=19-	=19-	=19-	=19-
2BB-/	-ra-	2B-\	-ra-	2d\	-ra-
2BB-/	-mus	2B-\	-mus	2d\	-mus
!LO:TX:t=P:problem:kreska pseudotaktowa	!	!LO:TX:t=P:problem:kreska pseudotaktowa	!	!LO:TX:t=P:problem:kreska pseudotaktowa	!
2F\	te	2B-\	te	2f\	te
!LO:LB:g=original	!	!	!	!	!
=20-	=20-	=20-	=20-	=20-	=20-
2B-\	glo-	2d\	glo-	2d\	glo-
2F\	-ri-	2c\	-ri-	2f\	-ri-
!LO:TX:t=P:problem:kreska pseudotaktowa	!	!LO:TX:t=P:problem:kreska pseudotaktowa	!	!LO:TX:t=P:problem:kreska pseudotaktowa	!
2G\	-fi-	2B-\	-fi-	2d\	-fi-
=21-	=21-	=21-	=21-	=21-	=21-
1D	-ca-	1A	-ca-	1d	-ca-
!LO:TX:t=P:problem:kreska pseudotaktowa	!	!LO:TX:t=P:problem:kreska pseudotaktowa	!	!LO:TX:t=P:problem:kreska pseudotaktowa	!
2D\	-mus	2A\	-mus	2d\	-mus
=22-	=22-	=22-	=22-	=22-	=22-
!LO:TX:t=P:problem:kreska pseudotaktowa	!	!LO:TX:t=P:problem:kreska pseudotaktowa	!	!LO:TX:t=P:problem:kreska pseudotaktowa	!
1.GG	te.	1.B-	te.	1.d	te.
=23-	=23-	=23-	=23-	=23-	=23-
2.G\	Gra-	2.d\	Gra-	2.d\	Gra-
4A\	-ti-	4c\	-ti-	4d\	-ti-
!LO:TX:t=P:problem:kreska pseudotaktowa	!	!LO:TX:t=P:problem:kreska pseudotaktowa	!	!LO:TX:t=P:problem:kreska pseudotaktowa	!
2B-\	-as	2B-\	-as	2d\	-as
=24-	=24-	=24-	=24-	=24-	=24-
*	*ij	*	*	*	*ij
2.B-\	Gra-	2.B-\	a-	2.d\	Gra-
4A\	-ti-	4c\	-gi-	4d\	-ti-
!LO:TX:t=P:problem:kreska pseudotaktowa	!	!LO:TX:t=P:problem:kreska pseudotaktowa	!	!LO:TX:t=P:problem:kreska pseudotaktowa	!
2G\	-as	2d\	-mus	2d\	-as
*	*Xij	*	*	*	*Xij
!	!	!LO:LB:g=original	!	!	!
=25-	=25-	=25-	=25-	=25-	=25-
2B-\	a-	2B-\	ti-	2d\	a-
4F\	-gi-	4A/	.	4f\	-gi-
4F\	-mus	4G/	.	4f\	-mus
!LO:TX:t=P:problem:kreska pseudotaktowa	!	!LO:TX:t=P:problem:kreska pseudotaktowa	!	!LO:TX:t=P:problem:kreska pseudotaktowa	!
2G\	ti-	2G/	.	2d\	ti-
=26-	=26-	=26-	=26-	=26-	=26-
!LO:TX:t=P:problem:kreska pseudotaktowa	!	!LO:TX:t=P:problem:kreska pseudotaktowa	!	!LO:TX:t=P:problem:kreska pseudotaktowa	!
1.D	-bi	1.Fny	-bi	1.d	-bi
!	!	!	!	!LO:LB:g=original	!
=27-	=27-	=27-	=27-	=27-	=27-
2.GG/	pr(o)-	2.d\	pro-	2.g\	pro-
4GG/	-p(te)r	4d\	-p(te)r	4d\	-p(te)r
4GG/	ma-	4d\	ma-	4g\	ma-
!LO:TX:t=P:problem:kreska pseudotaktowa	!	!LO:TX:t=P:problem:kreska pseudotaktowa	!	!LO:TX:t=P:problem:kreska pseudotaktowa	!
4GG/	-gn(am)	4d\	-gnam	4g\	-gn(am)
=28-	=28-	=28-	=28-	=28-	=28-
2.C/	glo-	2.G/	glo-	2.e\	glo-
4C/	-ri-	4G/	-ri-	4e\	-ri-
!LO:TX:t=P:problem:kreska pseudotaktowa	!	!LO:TX:t=P:problem:kreska pseudotaktowa	!	!LO:TX:t=P:problem:kreska pseudotaktowa	!
2C/	-am	2G/	-am	2e\	-am
!LO:LB:g=original	!	!	!	!	!
=29-	=29-	=29-	=29-	=29-	=29-
*	*	*	*ij	*	*ij
2.FF/	pro-	2.c\	pro-	2.f\	pro-
4FF/	-p(te)r	4c\	-p(te)r	4c\	-p(te)r
4FF/	ma-	4c\	ma-	4f\	ma-
!LO:TX:t=P:problem:kreska pseudotaktowa	!	!LO:TX:t=P:problem:kreska pseudotaktowa	!	!LO:TX:t=P:problem:kreska pseudotaktowa	!
4FF/	-gn(am)	4c\	-gnam	4f\	-gn(am)
=30-	=30-	=30-	=30-	=30-	=30-
2.BB-/	glo-	2.d\	glo-	2.f\	glo-
4BB-/	-ri-	4d\	-ri-	4f\	-ri-
!LO:TX:t=P:problem:kreska pseudotaktowa	!	!LO:TX:t=P:problem:kreska pseudotaktowa	!	!LO:TX:t=P:problem:kreska pseudotaktowa	!
2BB-/	-am	2d\	-am	2f\	-am
*	*	*	*Xij	*	*Xij
=31-	=31-	=31-	=31-	=31-	=31-
2BB-/	glo-	2d\	glo-	2d\	glo-
4C/	-ri-	4c\	-ri-	4e-X\	-ri-
4C/	-(am)	4B-\	-am	4e-\	-am
!LO:TX:t=P:problem:kreska pseudotaktowa	!	!LO:TX:t=P:problem:kreska pseudotaktowa	!	!LO:TX:t=P:problem:kreska pseudotaktowa	!
2D/	tu-	2A\	tu-	2d\	tu-
=32-	=32-	=32-	=32-	=32-	=32-
!LO:TX:t=P:problem:kreska pseudotaktowa	!	!LO:TX:t=P:problem:kreska pseudotaktowa	!	!LO:TX:t=P:problem:kreska pseudotaktowa	!
1.GG	-am.	1.B-	-am	1.d	-am
!	!	!LO:LB:g=original	!	!	!
=33-	=33-	=33-	=33-	=33-	=33-
2.G\	Do-	2.B-\	Do-	2.d\	Do-
4G\	-mi-	4B-\	-mi-	4d\	-mi-
!	!	!	!	!LO:SIC:v:t=custos d	!
!LO:TX:t=P:problem:kreska pseudotaktowa	!	!LO:TX:t=P:problem:kreska pseudotaktowa	!	!LO:TX:t=P:problem:kreska pseudotaktowa	!
2F\	-ne	2c\	-ne	2f\	-ne
!	!	!	!	!LO:LB:g=original	!
=34-	=34-	=34-	=34-	=34-	=34-
1BB-	De-	1d	De-	4d\	De-
.	.	.	.	4c\	.
.	.	.	.	4d\	.
.	.	.	.	4e\ny	.
!LO:TX:t=P:problem:kreska pseudotaktowa	!	!LO:TX:t=P:problem:kreska pseudotaktowa	!	!LO:TX:t=P:problem:kreska pseudotaktowa	!
2BB-/	-us	2d\	-us	2f\	-us
=35-	=35-	=35-	=35-	=35-	=35-
1BB-	Rex	1d	Rex	(>2.f\	Rex
.	.	.	.	4e\)	.
!LO:TX:t=P:problem:kreska pseudotaktowa	!	!LO:TX:t=P:problem:kreska pseudotaktowa	!	!LO:TX:t=P:problem:kreska pseudotaktowa	!
2BB-/	Cae-	2d\	Cae-	2d\	Cae-
=36-	=36-	=36-	=36-	=36-	=36-
1F	-les-	1c	-le-	1c	-les-
!LO:TX:t=P:problem:kreska pseudotaktowa	!	!LO:TX:t=P:problem:kreska pseudotaktowa	!	!LO:TX:t=P:problem:kreska pseudotaktowa	!
2F\	-tis	2c\	-stis	2c\	-tis
=37-	=37-	=37-	=37-	=37-	=37-
2BB-/	De-	2d\	De-	2d\	De-
2BB-/	-us	2d\	-us	2d\	-us
!LO:TX:t=P:problem:kreska pseudotaktowa	!	!LO:TX:t=P:problem:kreska pseudotaktowa	!	!LO:TX:t=P:problem:kreska pseudotaktowa	!
2FF/	Pa-	2c\	Pa-	2f\	Pa-
!LO:LB:g=original	!	!	!	!	!
=38-	=38-	=38-	=38-	=38-	=38-
1GG	-ter	1B-	-ter	1d	-ter
!LO:TX:t=P:problem:kreska pseudotaktowa	!	!LO:TX:t=P:problem:kreska pseudotaktowa	!	!LO:TX:t=P:problem:kreska pseudotaktowa	!
2C/	o-	2B-\	o-	2g\	o-
=39-	=39-	=39-	=39-	=39-	=39-
1D	-mni-	1A	-mni-	1f#X	-mni-
!	!	!	!	!LO:N:vis=4	!
!LO:TX:t=P:problem:kreska pseudotaktowa	!	!LO:TX:t=P:problem:kreska pseudotaktowa	!	!LO:TX:t=P:problem:kreska pseudotaktowa	!
2D\	-po-	2A\	-po-	2f#\	-po-
=40-	=40-	=40-	=40-	=40-	=40-
!LO:TX:t=P:problem:kreska pseudotaktowa	!	!LO:TX:t=P:problem:kreska pseudotaktowa	!	!LO:TX:t=P:problem:kreska pseudotaktowa	!
1.GG	-tens	1.B-	-tens.	1.g	-tens
=41-	=41-	=41-	=41-	=41-	=41-
2.GG/	Do-	2.d\	Do-	2.g\	Do-
4GG/	-mi-	4d\	-mi-	4g\	-mi-
!LO:TX:t=P:problem:kreska pseudotaktowa	!	!LO:TX:t=P:problem:kreska pseudotaktowa	!	!LO:TX:t=P:problem:kreska pseudotaktowa	!
2D/	-ne	2d\	-ne	2f\ny	-ne
!	!	!LO:LB:g=original	!	!	!
=42-	=42-	=42-	=42-	=42-	=42-
1AA	Fi-	1c	Fi-	1e	Fi-
!LO:TX:t=P:problem:kreska pseudotaktowa	!	!LO:TX:t=P:problem:kreska pseudotaktowa	!	!LO:TX:t=P:problem:kreska pseudotaktowa	!
2D/	-li	2d\	-li	2d\	-li
!	!	!	!	!LO:LB:g=original	!
=43-	=43-	=43-	=43-	=43-	=43-
1BB-	Fi-	(>2.B-\	Fi-	1f	Fi-
.	.	4c\	.	.	.
!LO:TX:t=P:problem:kreska pseudotaktowa	!	!LO:TX:t=P:problem:kreska pseudotaktowa	!	!LO:TX:t=P:problem:kreska pseudotaktowa	!
2BB-/	-li	2d\)	-li	2f\	-li
=44-	=44-	=44-	=44-	=44-	=44-
1C	u-	1e-X	u-	1e-X	u-
!LO:TX:t=P:problem:kreska pseudotaktowa	!	!LO:TX:t=P:problem:kreska pseudotaktowa	!	!LO:TX:t=P:problem:kreska pseudotaktowa	!
2BB-/	-ni-	2d\	-ni-	2d\	-ni-
=45-	=45-	=45-	=45-	=45-	=45-
2.F\	-ge-	2.c\	-ge-	2.f\	-ge-
4F\	-ni-	4c\	-ni-	4f\	-ni-
!LO:TX:t=P:problem:kreska pseudotaktowa	!	!LO:TX:t=P:problem:kreska pseudotaktowa	!	!LO:TX:t=P:problem:kreska pseudotaktowa	!
2BB-/	-te	2d\	-te	2f\	-te
=46-	=46-	=46-	=46-	=46-	=46-
2.BB-/	Je-	1B-	Je-	1d	JE-
4AA/	.	.	.	.	.
!LO:TX:t=P:problem:kreska pseudotaktowa	!	!LO:TX:t=P:problem:kreska pseudotaktowa	!	!LO:TX:t=P:problem:kreska pseudotaktowa	!
2GG/	-su	2B-\	-su	2g\	-su
=47-	=47-	=47-	=47-	=47-	=47-
2E\	Chri-	2G/	Chri-	2g\	Chri-
!LO:TX:t=P:problem:kreska pseudotaktowa	!	!LO:TX:t=P:problem:kreska pseudotaktowa	!	!LO:TX:t=P:problem:kreska pseudotaktowa	!
1D	.	1A	.	1f#X	.
!LO:LB:g=original	!	!	!	!	!
=48-	=48-	=48-	=48-	=48-	=48-
!LO:TX:t=P:problem:kreska pseudotaktowa	!	!LO:TX:t=P:problem:kreska pseudotaktowa	!	!LO:TX:t=P:problem:kreska pseudotaktowa	!
1.GG	-ste	1.B-	-ste	1.g	-ste
=49-	=49-	=49-	=49-	=49-	=49-
!LO:TX:t=P:problem:kreska pseudotaktowa	!	!	!	!	!
1.r	.	2G/	Do-	2g\	Do-
.	.	4G/	-mi-	4g\	-mi-
.	.	4G/	-ne	4g\	-ne
.	.	4D/	De-	4f\ny	De-
!	!	!LO:TX:t=P:problem:kreska pseudotaktowa	!	!LO:TX:t=P:problem:kreska pseudotaktowa	!
.	.	4D/	-us	4f\	-us
=50-	=50-	=50-	=50-	=50-	=50-
*	*	*	*	*	*ij
2G\	Do-	2G/	D(o-	2g\	Do-
4G\	-mi-	4G/	-mi)-	4d\	-mi-
4G\	-ne	4G/	-ne	4d\	-ne
!	!	!LO:LB:g=original	!	!	!
4D\	De-	4A\	De-	4d\	De-
!LO:TX:t=P:problem:kreska pseudotaktowa	!	!LO:TX:t=P:problem:kreska pseudotaktowa	!	!LO:TX:t=P:problem:kreska pseudotaktowa	!
4D\	-us	4c\	-us	4d\	-us
*	*	*	*	*	*Xij
!	!	!	!	!LO:LB:g=original	!
=51-	=51-	=51-	=51-	=51-	=51-
2.BB-/	A-	2.d\	A-	2.d\	A-
4FF/	-gnus	4c\	-gnus	4f\	-gnus
!LO:TX:t=P:problem:kreska pseudotaktowa	!	!LO:TX:t=P:problem:kreska pseudotaktowa	!	!LO:TX:t=P:problem:kreska pseudotaktowa	!
2GG/	De-	2B-\	De-	2d\	De-
=52-	=52-	=52-	=52-	=52-	=52-
!LO:TX:t=P:problem:kreska pseudotaktowa	!	!LO:TX:t=P:problem:kreska pseudotaktowa	!	!LO:TX:t=P:problem:kreska pseudotaktowa	!
1.D	-i	1.A	-i	1.d	-i
=53-	=53-	=53-	=53-	=53-	=53-
2.B-\	Fi-	2.B-\	Fi-	2.f\	Fi-
4B-\	-li-	4B-\	-li-	4f\	-li-
!LO:TX:t=P:problem:kreska pseudotaktowa	!	!LO:TX:t=P:problem:kreska pseudotaktowa	!	!LO:TX:t=P:problem:kreska pseudotaktowa	!
2F\	-us	2A\	-us	2f\	-us
=54-	=54-	=54-	=54-	=54-	=54-
*	*	*	*ij	*	*
2.G\	Fi-	2.G/	Fi-	2.d\	Fi-
4G\	-li-	4G/	-li-	4d\	-li-
!LO:TX:t=P:problem:kreska pseudotaktowa	!	!LO:TX:t=P:problem:kreska pseudotaktowa	!	!LO:TX:t=P:problem:kreska pseudotaktowa	!
2D\	-us	2F/	-us	2d\	-us
*	*	*	*Xij	*	*
=55-	=55-	=55-	=55-	=55-	=55-
2BB-/	Pa-	2d\	Pa-	(>2d\	Pa-
2C/	.	(>4c\	.	2e\)ny	.
.	.	4B-\)	.	.	.
!LO:TX:t=P:problem:kreska pseudotaktowa	!	!LO:TX:t=P:problem:kreska pseudotaktowa	!	!LO:TX:t=P:problem:kreska pseudotaktowa	!
2D/	.	2A\	.	2d\	.
!LO:LB:g=original	!	!	!	!	!
=56-	=56-	=56-	=56-	=56-	=56-
!LO:TX:t=P:problem:kreska pseudotaktowa	!	!LO:TX:t=P:problem:podwójna kreska pseudotaktowa	!	!LO:TX:t=P:problem:podwójna kreska pseudotaktowa	!
1.GG;>	-tris	1.G;	-tris	1.d;>	-tris
=57||-	=57||-	=57||-	=57||-	=57||-	=57||-
*M3/2	*	*M3/2	*	*M3/2	*
2G\	Qui	2B-\	Qui	2d\	Qui
2G\	tol-	2B-\	tol-	2d\	tol-
!LO:TX:t=P:problem:kreska pseudotaktowa	!	!LO:TX:t=P:problem:kreska pseudotaktowa	!	!LO:TX:t=P:problem:kreska pseudotaktowa	!
2D\	-lis	2A\	-lis	2f\	-lis
!	!	!LO:LB:g=original	!	!	!
=58-	=58-	=58-	=58-	=58-	=58-
2.G\	pec-	2.B-\	pec-	2d\	pec-
.	.	.	.	2d\	-ca-
4A\	-ca-	4c\	-ca-	.	.
!LO:TX:t=P:problem:kreska pseudotaktowa	!	!LO:TX:t=P:problem:kreska pseudotaktowa	!	!LO:TX:t=P:problem:kreska pseudotaktowa	!
2B-\	.	2d\	-ta	2f\	-ta
!	!	!	!	!LO:PB:g=original	!
=59-	=59-	=59-	=59-	=59-	=59-
1F	-ta	1c	mun-	1f	mun-
!LO:TX:t=P:problem:kreska pseudotaktowa	!	!LO:TX:t=P:problem:kreska pseudotaktowa	!	!LO:TX:t=P:problem:kreska pseudotaktowa	!
2G\	mun-	2B-\	.	2d\	.
=60-	=60-	=60-	=60-	=60-	=60-
!LO:TX:t=P:problem:kreska pseudotaktowa	!	!LO:TX:t=P:problem:kreska pseudotaktowa	!	!LO:TX:t=P:problem:kreska pseudotaktowa	!
1.F	-di	1.c	-di	1.f	-di
=61-	=61-	=61-	=61-	=61-	=61-
2.BB-/	mi-	1d	mi-	2.f\	mi-
4BB-/	-se-	.	.	4f\	-se-
!	!	!LO:TX:t=P:problem:kreska pseudotaktowa	!	!	!
4BB-/	-re-	2d\	-se-	4f\	-re-
!LO:TX:t=P:problem:kreska pseudotaktowa	!	!	!	!LO:TX:t=P:problem:kreska pseudotaktowa	!
4BB-/	-re	.	.	4e\	-re
=62-	=62-	=62-	=62-	=62-	=62-
2.FF/	mi-	1c	-re-	2.f\	mi-
4FF/	-se-	.	.	4f\	-se-
!	!	!LO:TX:t=P:problem:kreska pseudotaktowa	!	!	!
4GG/	-re-	2B-\	-re	4d\	-re-
!LO:TX:t=P:problem:kreska pseudotaktowa	!	!	!	!LO:TX:t=P:problem:kreska pseudotaktowa	!
4GG/	-re	.	.	4d\	-re
=63-	=63-	=63-	=63-	=63-	=63-
2C\	no-	(>2c\	no-	(>2e-X\	no-
!LO:TX:t=P:problem:kreska pseudotaktowa	!	!	!	!LO:TX:t=P:problem:kreska pseudotaktowa	!
1D	.	(>2B-\)	.	1d)	.
!	!	!LO:TX:t=P:problem:kreska pseudotaktowa	!	!	!
.	.	2A\)	.	.	.
=64-	=64-	=64-	=64-	=64-	=64-
!LO:TX:t=P:problem:kreska pseudotaktowa	!	!LO:TX:t=P:problem:kreska pseudotaktowa	!	!LO:TX:t=P:problem:kreska pseudotaktowa	!
1.GG	-bis	1.G	-bis.	1.d	-bis.
!LO:PB:g=original	!	!	!	!	!
=65-	=65-	=65-	=65-	=65-	=65-
2F\	Qui	2c\	qui	2f\	qui
2F\	tol-	2c\	tol-	2f\	tol-
!LO:TX:t=P:problem:kreska pseudotaktowa	!	!LO:TX:t=P:problem:kreska pseudotaktowa	!	!LO:TX:t=P:problem:kreska pseudotaktowa	!
2D\	-lis	2B-\	-lis	2f\	-lis
=66-	=66-	=66-	=66-	=66-	=66-
2.C\	pec-	2G/	pec-	2e\ny	pec-
.	.	2G/	-ca-	2e\	-ca-
4C\	-ca-	.	.	.	.
!LO:TX:t=P:problem:kreska pseudotaktowa	!	!LO:TX:t=P:problem:kreska pseudotaktowa	!	!LO:TX:t=P:problem:kreska pseudotaktowa	!
2F\	-ta	2A/	-ta	2f\	-ta
!	!	!LO:PB:g=original	!	!	!
=67-	=67-	=67-	=67-	=67-	=67-
2BB-/	mun-	2F/	mun-	(>2d\	mun-
!LO:TX:t=P:problem:kreska pseudotaktowa	!	!LO:TX:t=P:problem:kreska pseudotaktowa	!	!LO:TX:t=P:problem:kreska pseudotaktowa	!
1C	.	1G	.	1e)	.
=68-	=68-	=68-	=68-	=68-	=68-
!LO:TX:t=P:problem:kreska pseudotaktowa	!	!LO:TX:t=P:problem:kreska pseudotaktowa	!	!LO:TX:t=P:problem:kreska pseudotaktowa	!
1.FF	-di	1.A	-di	1.f	-di
!	!	!	!	!LO:LB:g=original	!
=69-	=69-	=69-	=69-	=69-	=69-
2.FF/	sus-	2.c\	sus-	2.c\	sus-
4FF/	-ci-	4B-\	-ci-	4d\	-ci-
!LO:TX:t=P:problem:kreska pseudotaktowa	!	!LO:TX:t=P:problem:kreska pseudotaktowa	!	!LO:TX:t=P:problem:kreska pseudotaktowa	!
2FF/	-pe	2A\	-pe	2c\	-pe
=70-	=70-	=70-	=70-	=70-	=70-
*	*ij	*	*	*	*ij
2.BB-/	sus-	2.B-\	sus-	2.d\	sus-
4BB-/	-ci-	4F/	-ci-	4e\	-ci-
!LO:TX:t=P:problem:kreska pseudotaktowa	!	!LO:TX:t=P:problem:kreska pseudotaktowa	!	!LO:TX:t=P:problem:kreska pseudotaktowa	!
2BB-/	-pe	2B-\	-pe	2f\	-pe
*	*Xij	*	*	*	*Xij
=71-	=71-	=71-	=71-	=71-	=71-
2.BB-/	de-	2.B-\	de-	2.f\	de-
4BB-/	-pre-	4B-\	-pre-	4d\	-pre-
4BB-/	-ca-	4B-\	-ca-	4f\	-ca-
!LO:TX:t=P:problem:kreska pseudotaktowa	!	!LO:TX:t=P:problem:kreska pseudotaktowa	!	!LO:TX:t=P:problem:kreska pseudotaktowa	!
4BB-/	-ti-	4B-\	-ti-	4f\	-ti-
=72-	=72-	=72-	=72-	=72-	=72-
1C	-o-	1G	-o-	1e-X	-o-
!LO:TX:t=P:problem:kreska pseudotaktowa	!	!LO:TX:t=P:problem:kreska pseudotaktowa	!	!LO:TX:t=P:problem:kreska pseudotaktowa	!
2C/	-nem	2G/	-nem	2e-\	-nem
=73-	=73-	=73-	=73-	=73-	=73-
2C/	no-	2E-X/	no-	2e\ny	no-
!LO:TX:t=P:problem:kreska pseudotaktowa	!	!LO:TX:t=P:problem:kreska pseudotaktowa	!	!LO:TX:t=P:problem:kreska pseudotaktowa	!
!LO:TX:a:i:t=g	!	!	!	!	!
1GG	.	1G	.	1d	.
!LO:LB:g=original	!	!	!	!	!
=74-	=74-	=74-	=74-	=74-	=74-
!	!	!	!	!LO:N:acc=#	!
!LO:TX:t=P:problem:kreska pseudotaktowa	!	!LO:TX:t=P:problem:kreska pseudotaktowa	!	!LO:TX:t=P:problem:kreska pseudotaktowa	!
1.C	-stram	1.G	-stram	1.en	-stram
=75-	=75-	=75-	=75-	=75-	=75-
2G\	Qui	2d\	q(ui)	2g\	q(ui)
(>4G\	se-	2c\	se-	2g\	se-
4A\)	.	.	.	.	.
4B-,<\	-des	4B-,<\	-des	4d\	-des
!LO:TX:t=P:problem:kreska pseudotaktowa	!	!LO:TX:t=P:problem:kreska pseudotaktowa	!	!LO:TX:t=P:problem:kreska pseudotaktowa	!
4B-\	ad	4B-\	ad	4d\	ad
!	!	!LO:LB:g=original	!	!	!
=76-	=76-	=76-	=76-	=76-	=76-
2.B-\	dex-	2.G/	dex-	2.e\	dex-
4A\	-te-	4A/	-te-	4f\	-te-
!LO:TX:t=P:problem:kreska pseudotaktowa	!	!LO:TX:t=P:problem:kreska pseudotaktowa	!	!LO:TX:t=P:problem:kreska pseudotaktowa	!
2G\	-ram	2B-/	-ram	2g\	-ram
=77-	=77-	=77-	=77-	=77-	=77-
1F	Pa-	1A	Pa-	1a	Pa-
!LO:TX:t=P:problem:kreska pseudotaktowa	!	!LO:TX:t=P:problem:kreska pseudotaktowa	!	!LO:TX:t=P:problem:kreska pseudotaktowa	!
2G\	-tris	2G/	-tris	2g\	-tris
!	!	!	!	!LO:LB:g=original	!
=78-	=78-	=78-	=78-	=78-	=78-
*	*	*	*ij	*	*
1D	Pa-	1F	Pa-	1f#X	Pa-
!LO:TX:t=P:problem:kreska pseudotaktowa	!	!LO:TX:t=P:problem:kreska pseudotaktowa	!	!LO:TX:t=P:problem:kreska pseudotaktowa	!
2GG/	-tris	2G,</	-tris	2g\	-tris
*	*	*	*Xij	*	*
=79-	=79-	=79-	=79-	=79-	=79-
2.BB-/	mi-	2.d\	mi-	2.f\ny	mi-
4BB-/	-se-	4d\	-se-	4d\	-se-
4FF/	-re-	4c\	-re-	4f\	-re-
!LO:TX:t=P:problem:kreska pseudotaktowa	!	!LO:TX:t=P:problem:kreska pseudotaktowa	!	!LO:TX:t=P:problem:kreska pseudotaktowa	!
4FF/	-re	4c\	-re	4f\	-re
=80-	=80-	=80-	=80-	=80-	=80-
2.GG/	mi-	2.B-\	mi-	2.d\	mi-
4GG/	-se-	4B-\	-se-	4d\	-se-
4D/	-re-	4A\	-re-	4d\	-re-
!LO:TX:t=P:problem:kreska pseudotaktowa	!	!LO:TX:t=P:problem:kreska pseudotaktowa	!	!LO:TX:t=P:problem:kreska pseudotaktowa	!
4D/	-re	4A\	-re	4d\	-re
=81-	=81-	=81-	=81-	=81-	=81-
2BB-/	no-	4d\	mi-	2d\	no-
.	.	4d\	-se-	.	.
2C/	.	4c\	-re-	(>2e-X\	.
.	.	4B-\	-re	.	.
!LO:TX:t=P:problem:kreska pseudotaktowa	!	!LO:TX:t=P:problem:kreska pseudotaktowa	!	!LO:TX:t=P:problem:kreska pseudotaktowa	!
2D/	.	2A\	no-	2d\)	.
!LO:LB:g=original	!	!	!	!	!
=82-	=82-	=82-	=82-	=82-	=82-
!LO:TX:t=P:problem:kreska pseudotaktowa	!	!LO:TX:t=P:problem:kreska pseudotaktowa	!	!LO:TX:t=P:problem:kreska pseudotaktowa	!
1.GG	-bis	1.G	-bis.	1.d	-bis
=83-	=83-	=83-	=83-	=83-	=83-
2.G\	Quo-	2.B-\	Quo-	2.g\	Quo-
4A\	-ni-	4c\	-ni-	4f\	-ni-
!LO:TX:t=P:problem:kreska pseudotaktowa	!	!LO:TX:t=P:problem:kreska pseudotaktowa	!	!LO:TX:t=P:problem:kreska pseudotaktowa	!
2B-\	-am	2d\	-(am)	2e\ny	-am
=84-	=84-	=84-	=84-	=84-	=84-
1F	tu	1c	tu	1f	Tu
!LO:TX:t=P:problem:kreska pseudotaktowa	!	!LO:TX:t=P:problem:kreska pseudotaktowa	!	!LO:TX:t=P:problem:kreska pseudotaktowa	!
2G\	so-	2B-\	so-	2d\	so-
!	!	!LO:LB:g=original	!	!	!
=85-	=85-	=85-	=85-	=85-	=85-
2C/	-lus	2G/	-lus	2e\	-lus
!LO:TX:t=P:problem:kreska pseudotaktowa	!	!LO:TX:t=P:problem:kreska pseudotaktowa	!	!LO:TX:t=P:problem:kreska pseudotaktowa	!
1D	San-	1A	S(an)-	1d	S(an)-
=86-	=86-	=86-	=86-	=86-	=86-
!LO:TX:t=P:problem:kreska pseudotaktowa	!	!LO:TX:t=P:problem:kreska pseudotaktowa	!	!LO:TX:t=P:problem:kreska pseudotaktowa	!
1.GG	-ctus	1.B-	-ctus	1.d	-ctus
!	!	!	!	!LO:LB:g=original	!
=87-	=87-	=87-	=87-	=87-	=87-
2F\	tu	2c\	tu	2f\	Tu
2F\	so-	2c\	so-	2f\	so-
!LO:TX:t=P:problem:kreska pseudotaktowa	!	!LO:TX:t=P:problem:kreska pseudotaktowa	!	!	!
2D\	-lus	2B-\	-lus	(>4f\	-lus
!	!	!	!	!LO:TX:t=P:problem:kreska pseudotaktowa	!
.	.	.	.	4f\)	al-
=88-	=88-	=88-	=88-	=88-	=88-
2.C/	Do-	2.G/	Do-	2.e\	-tiſ-
4C/	-mi-	4G/	-mi-	4e\	-si-
!LO:TX:t=P:problem:kreska pseudotaktowa	!	!LO:TX:t=P:problem:kreska pseudotaktowa	!	!LO:TX:t=P:problem:kreska pseudotaktowa	!
2C/	-nus	2G/	-nus,	2e\	-mus
=89-	=89-	=89-	=89-	=89-	=89-
2E\	Tu	2B-\	tu	2c\	tu
2E\	so-	2B-\	so-	2c\	so-
4E,<\	-lus	4B-,<\	-lus	4d\	-lus
!LO:TX:t=P:problem:kreska pseudotaktowa	!	!LO:TX:t=P:problem:kreska pseudotaktowa	!	!LO:TX:t=P:problem:kreska pseudotaktowa	!
4C\	al-	4c\	al-	4e-X\	al-
!	!	!	!	!LO:LB:g=original	!
=90-	=90-	=90-	=90-	=90-	=90-
2.BB-/	-tiſ-	2.d\	-tiſ-	2.f\	-tiſ-
4BB-/	-si-	4d\	-si-	4f\	-si-
!LO:TX:t=P:problem:kreska pseudotaktowa	!	!LO:TX:t=P:problem:kreska pseudotaktowa	!	!LO:TX:t=P:problem:kreska pseudotaktowa	!
2BB-/	-mus	2d\	-mus	2f\	-mus
!LO:LB:g=original	!	!	!	!	!
=91-	=91-	=91-	=91-	=91-	=91-
2.BB-/	Je-	1B-	JE-	1d	JE-
4AA/	.	.	.	.	.
!LO:TX:t=P:problem:kreska pseudotaktowa	!	!LO:TX:t=P:problem:kreska pseudotaktowa	!	!LO:TX:t=P:problem:kreska pseudotaktowa	!
2GG/	-su	2B-\	-su	2g\	-su
=92-	=92-	=92-	=92-	=92-	=92-
2G\	Chri-	2G/	Chri-	2g\	Chri-
!LO:TX:t=P:problem:kreska pseudotaktowa	!	!LO:TX:t=P:problem:kreska pseudotaktowa	!	!LO:TX:t=P:problem:kreska pseudotaktowa	!
1D	.	1A	.	1f#X	.
=93-	=93-	=93-	=93-	=93-	=93-
!	!	!LO:N:acc=#	!	!	!
!LO:TX:t=P:problem:kreska pseudotaktowa	!	!LO:TX:t=P:problem:kreska pseudotaktowa	!	!LO:TX:t=P:problem:kreska pseudotaktowa	!
1.GG	-ste.	1.Bn	-ste	1.g	-ste.
!	!	!LO:LB:g=original	!	!	!
=94-	=94-	=94-	=94-	=94-	=94-
2B-\	Cum	2B-\	Cum	2d\	Cum
2G\	S(an)-	2d\	S(an)-	2d\	S(an)-
!LO:TX:t=P:problem:kreska pseudotaktowa	!	!LO:TX:t=P:problem:kreska pseudotaktowa	!	!LO:TX:t=P:problem:kreska pseudotaktowa	!
2B-\	-cto	2B-\	-cto	2d\	-cto
=95-	=95-	=95-	=95-	=95-	=95-
2.A\	Spi-	2.A\	Spi-	2.f\ny	Spi-
4G\	-ri-	4B-\	-ri-	4f\	-ri-
!LO:TX:t=P:problem:kreska pseudotaktowa	!	!LO:TX:t=P:problem:kreska pseudotaktowa	!	!LO:TX:t=P:problem:kreska pseudotaktowa	!
2F\	-tu	2c\	-tu	2f\	-tu
!	!	!	!	!LO:LB:g=original	!
=96-	=96-	=96-	=96-	=96-	=96-
2G\	cum	2c\	Cum	2d\	cum
2E-X\	S(an)-	2B-\	San-	2c\	S(an-
!LO:TX:t=P:problem:kreska pseudotaktowa	!	!LO:TX:t=P:problem:kreska pseudotaktowa	!	!LO:TX:t=P:problem:kreska pseudotaktowa	!
2G\	-cto	2d\	-cto	2d\	-cto)
=97-	=97-	=97-	=97-	=97-	=97-
2.F\	Spi-	2.A\	Spi-	2.c\	Spi-
4E\ny	-ri-	4A\	-ri-	4c\	-ri-
4D,<\	-tu,	4B-\	-tu	4d\	-tu
!LO:TX:t=P:problem:kreska pseudotaktowa	!	!LO:TX:t=P:problem:kreska pseudotaktowa	!	!LO:TX:t=P:problem:kreska pseudotaktowa	!
4D\	in	4B-\	in	4d\	in
=98-	=98-	=98-	=98-	=98-	=98-
2.BB-/	glo-	2.d\	glo-	2.f\	glo-
4BB-/	-ri-	4d\	-ri-	4f\	-ri-
!LO:TX:t=P:problem:kreska pseudotaktowa	!	!LO:TX:t=P:problem:kreska pseudotaktowa	!	!LO:TX:t=P:problem:kreska pseudotaktowa	!
2BB-/	-a	2d\	-a	2f\	-a
!LO:LB:g=original	!	!	!	!	!
=99-	=99-	=99-	=99-	=99-	=99-
4D\	De-	4d\	De-	4f\	De-
4D\	-i	4d\	-i	4f\	-i
4E\	Pa-	4c\	Pa-	4g\	Pa-
4E\	-tris	4B-\	-tris	4g\	-tris
!LO:TX:t=P:problem:kreska pseudotaktowa	!	!LO:TX:t=P:problem:kreska pseudotaktowa	!	!LO:TX:t=P:problem:kreska pseudotaktowa	!
2F\	A-	2A\	a-	2f\	A-
=100-	=100-	=100-	=100-	=100-	=100-
!LO:TX:t=P:problem:kreska pseudotaktowa	!	!LO:TX:t=P:problem:kreska pseudotaktowa	!	!LO:TX:t=P:problem:kreska pseudotaktowa	!
1.BB-	-men	1.B-	-men	1.f	-men
!	!	!LO:LB:g=original	!	!	!
=101-	=101-	=101-	=101-	=101-	=101-
!	!	!LO:TX:t=P:problem:kreska pseudotaktowa	!	!	!
2GG/	De-	1.r	.	4g\	De-
.	.	.	.	4a\	-i
2C/	-i	.	.	4g\	Pa-
.	.	.	.	4g\	-tris
!LO:TX:t=P:problem:kreska pseudotaktowa	!	!	!	!LO:TX:t=P:problem:kreska pseudotaktowa	!
2D/	Pa-	.	.	2f#X\	A-
=102-	=102-	=102-	=102-	=102-	=102-
2G\	-tris	4d\	De-	2g-X\	-men
.	.	4d\	-i	.	.
2C/	A-	4c\	Pa-	2e-X\	A-
.	.	4B-\	-tris	.	.
!LO:TX:t=P:problem:kreska pseudotaktowa	!	!LO:TX:t=P:problem:kreska pseudotaktowa	!	!LO:TX:t=P:problem:kreska pseudotaktowa	!
2D/	.	2A\	A-	2d\	.
=103-	=103-	=103-	=103-	=103-	=103-
*M4/4	*	*M4/4	*	*M4/4	*
*met(c)	*	*met(c)	*	*met(c)	*
2GG/	-men	2G/	-men	2d\	-men
!LO:TX:t=P:problem:kreska pseudotaktowa	!	!LO:TX:t=P:problem:kreska pseudotaktowa	!	!LO:TX:t=P:problem:kreska pseudotaktowa	!
2rC	.	2r	.	2r	.
=104-	=104-	=104-	=104-	=104-	=104-
*	*	*	*	*	*ij
2.C/	A-	2.c\	A-	2.g\ny	A-
!LO:TX:t=P:problem:kreska pseudotaktowa	!	!LO:TX:t=P:problem:kreska pseudotaktowa	!	!LO:TX:t=P:problem:kreska pseudotaktowa	!
4BB-/	-men	4c\	-men	4g\	-men
=105-	=105-	=105-	=105-	=105-	=105-
*	*ij	*	*ij	*	*
!LO:TX:t=P:problem:kreska pseudotaktowa	!	!LO:TX:t=P:problem:kreska pseudotaktowa	!	!LO:TX:t=P:problem:kreska pseudotaktowa	!
1C	A-	1c	A-	1g	A-
=106-	=106-	=106-	=106-	=106-	=106-
!	!	!LO:N:acc=#	!	!	!
!LO:TX:t=P:problem:końcowa kreska pseudotaktowa	!	!LO:TX:t=P:problem:końcowa kreska pseudotaktowa	!	!LO:TX:t=P:problem:końcowa kreska pseudotaktowa	!
0GG;>	-men	0Bn;>	-men	0g;>	-men
*	*Xij	*	*Xij	*	*Xij
=-	=-	=-	=-	=-	=-
*-	*-	*-	*-	*-	*-
!!!system-decoration: s1,s2,s3
!!!RDF**kern: > = above
!!!RDF**kern: < = below
!!!EED: Antoni Szymański
!!!EST: 2021-07-19
!!!ENC: Berenika Jozajtis
!!!END: 2021-07-01
